icons/drag-move-fill.svg

<svg viewBox="0 0 24 24" fill="currentColor" xmlns="http://www.w3.org/2000/svg">
    <path d="M12 22L8 18H16L12 22ZM12 2L16 6H8L12 2ZM12 14C10.8954 14 10 13.1046 10 12C10 10.8954 10.8954 10 12 10C13.1046 10 14 10.8954 14 12C14 13.1046 13.1046 14 12 14ZM2 12L6 8V16L2 12ZM22 12L18 16V8L22 12Z"/>
</svg>

<svg xmlns="http://www.w3.org/2000/svg" viewBox="0 0 24 24">
    <g>
        <path fill="none" d="M0 0h24v24H0z"/>
        <path d="M12 22l-4-4h8l-4 4zm0-20l4 4H8l4-4zm0 12a2 2 0 1 1 0-4 2 2 0 0 1 0 4zM2 12l4-4v8l-4-4zm20 0l-4 4V8l4 4z"/>
    </g>
</svg>
